icons/notion.svg

<svg fill="none" height="12" viewBox="0 0 12 12" width="12" xmlns="http://www.w3.org/2000/svg"><rect fill="#f3f3f3" height="12" rx="2.5" width="12"/><path d="m2.48136 2.34506 4.42664-.32696c.54376-.04664.68344-.0152 1.02536.23336l1.41304.99544c.23304.1712.31064.21784.31064.40424v5.45944c0 .34216-.12424.54456-.5592.57544l-5.14048.31136c-.3264.01542-.48184-.0312-.6528-.24904l-1.04056-1.35312c-.18664-.24904-.264-.43544-.264-.65336v-4.8528c0-.27976.12424-.51304.48136-.544z" fill="#fff"/><path clip-rule="evenodd" d="m6.908 2.01818-4.42664.32696c-.35712.03088-.48136.26424-.48136.54392v4.8528c0 .21784.07736.40424.264.65336l1.04056 1.35304c.17096.21784.3264.26454.6528.24904l5.14056-.3112c.43464-.03096.5592-.23336.5592-.57544v-5.45944c0-.1768-.06984-.22776-.27544-.37864l-1.44832-1.02112c-.34184-.24856-.4816-.28-1.02536-.23336zm-2.8344 1.54368c-.41976.02824-.51496.03464-.75336-.1592l-.60608-.48208c-.0616-.0624-.03064-.14024.12456-.15576l4.25544-.31096c.35736-.0312.54344.09336.6832.20216l.72984.5288c.0312.01576.1088.1088.01544.1088l-4.39464.26456zm-.48936 5.50216v-4.63464c0-.2024.06216-.29576.24824-.31144l5.04752-.29552c.1712-.01544.24856.09336.24856.29544v4.60376c0 .2024-.0312.3736-.31064.38904l-4.83016.28c-.27944.01544-.40344-.0776-.40344-.32664zm4.768-4.38616c.03096.14 0 .28-.14.296l-.2328.04616v3.42184c-.20216.1088-.38824.17096-.54376.17096-.24856 0-.31064-.07784-.4968-.31096l-1.5224-2.3952v2.31736l.4816.10904s0 .28-.38856.28l-1.0712.06216c-.0312-.0624 0-.21784.10856-.2488l.27976-.0776v-3.064l-.38824-.03144c-.0312-.14.0464-.34216.264-.35784l1.14936-.07736 1.584 2.42616v-2.1464l-.40376-.0464c-.0312-.17144.09304-.296.24824-.3112z" fill="#000" fill-rule="evenodd"/></svg>

<svg width="12" height="12" viewBox="0 0 12 12" fill="none" xmlns="http://www.w3.org/2000/svg">
<rect width="12" height="12" rx="2" fill="#F3F3F3"/>
<g clip-path="url(#clip0_210_228)">
<path d="M2.48136 2.34506L6.908 2.0181C7.45176 1.97146 7.59144 2.0029 7.93336 2.25146L9.3464 3.2469C9.57944 3.4181 9.65704 3.46474 9.65704 3.65114V9.11058C9.65704 9.45274 9.5328 9.65514 9.09784 9.68602L3.95736 9.99738C3.63096 10.0128 3.47552 9.96618 3.30456 9.74834L2.264 8.39522C2.07736 8.14618 2 7.95978 2 7.74186V2.88906C2 2.6093 2.12424 2.37602 2.48136 2.34506Z" fill="white"/>
<path fill-rule="evenodd" clip-rule="evenodd" d="M6.908 2.01818L2.48136 2.34514C2.12424 2.37602 2 2.60938 2 2.88906V7.74186C2 7.9597 2.07736 8.1461 2.264 8.39522L3.30456 9.74826C3.47552 9.9661 3.63096 10.0128 3.95736 9.9973L9.09792 9.6861C9.53256 9.65514 9.65712 9.45274 9.65712 9.11066V3.65122C9.65712 3.47442 9.58728 3.42346 9.38168 3.27258L7.93336 2.25146C7.59152 2.0029 7.45176 1.97146 6.908 2.0181V2.01818ZM4.0736 3.56186C3.65384 3.5901 3.55864 3.5965 3.32024 3.40266L2.71416 2.92058C2.65256 2.85818 2.68352 2.78034 2.83872 2.76482L7.09416 2.45386C7.45152 2.42266 7.6376 2.54722 7.77736 2.65602L8.5072 3.18482C8.5384 3.20058 8.616 3.29362 8.52264 3.29362L4.128 3.55818L4.0736 3.56186ZM3.58424 9.06402V4.42938C3.58424 4.22698 3.6464 4.13362 3.83248 4.11794L8.88 3.82242C9.0512 3.80698 9.12856 3.91578 9.12856 4.11786V8.72162C9.12856 8.92402 9.09736 9.09522 8.81792 9.11066L3.98776 9.39066C3.70832 9.4061 3.58432 9.31306 3.58432 9.06402H3.58424ZM8.35224 4.67786C8.3832 4.81786 8.35224 4.95786 8.21224 4.97386L7.97944 5.02002V8.44186C7.77728 8.55066 7.5912 8.61282 7.43568 8.61282C7.18712 8.61282 7.12504 8.53498 6.93888 8.30186L5.41648 5.90666V8.22402L5.89808 8.33306C5.89808 8.33306 5.89808 8.61306 5.50952 8.61306L4.43832 8.67522C4.40712 8.61282 4.43832 8.45738 4.54688 8.42642L4.82664 8.34882V5.28482L4.4384 5.25338C4.4072 5.11338 4.4848 4.91122 4.7024 4.89554L5.85176 4.81818L7.43576 7.24434V5.09794L7.032 5.05154C7.0008 4.8801 7.12504 4.75554 7.28024 4.74034L8.35224 4.67786Z" fill="black"/>
</g>
<defs>
<clipPath id="clip0_210_228">
<rect width="8" height="8" fill="white" transform="translate(2 2)"/>
</clipPath>
</defs>
</svg>
